T: Acrobat, The
M: 4/4
L: 1/8
K: Gmin
FE|:DFBc dBgf|(3ecA (3ecA a2 ag|f=e^dc Aagf|=efgf (3_ecB (3AFE|
DFBc dBgf|(3ecA (3ecA a2 ag|f=e^dc AagA|1(3BAB (3cBA B2 FE:|2(3BAB (3cBA B2 cB ||
|Acdc afef|dBdf bg^fg|ec^Bc ^cd^de|(3gfe (3fed c2 cB|
Acdc afef|dBdf bg^fg|ec^Bc ^cd^de|1(3fgf (3efg f2 cB:|2((3fgf (3efg f2||
